src/main/resources/icons/JavaUltimateIcons/icons/web/gutter/requestMapping.svg

<svg xmlns="http://www.w3.org/2000/svg" width="12" height="12" viewBox="0 0 12 12">
  <g fill="none" fill-rule="evenodd">
    <path fill="#40B6E0" fill-opacity=".7" d="M1.10685771,2.02704609 L4.79222286,5.7577923 C4.23180944,6.50817588 3.9,7.43926316 3.9,8.44784868 C3.9,9.75322935 4.45582442,10.9287903 5.3437166,11.7507748 C4.21392414,11.4347962 3.11106022,10.7497063 2.14694343,9.77360609 C-0.115285146,7.48325942 -0.794628003,4.41808609 1.10685771,2.02704609 Z M9.65258628,2.17467275 C10.5680154,3.10148012 11.2242499,4.15516395 11.555164,5.23965666 C10.7428305,4.440488 9.62894628,3.94784868 8.4,3.94784868 C7.38236886,3.94784868 6.44363231,4.28563655 5.6897976,4.85520502 L2.00028628,1.12080609 C4.361972,-0.804313912 7.38951485,-0.117380579 9.65258628,2.17467275 Z"/>
    <path fill="#9AA7B0" d="M8.4,4.94784868 C6.468,4.94784868 4.9,6.51584868 4.9,8.44784868 C4.9,10.3798487 6.468,11.9478487 8.4,11.9478487 C10.332,11.9478487 11.9,10.3798487 11.9,8.44784868 C11.9,6.51584868 10.332,4.94784868 8.4,4.94784868 Z M8.05,11.2233487 C6.6675,11.0518487 5.6,9.87584868 5.6,8.44784868 C5.6,8.23084868 5.628,8.02434868 5.6735,7.82134868 L7.35,9.49784868 L7.35,9.84784868 C7.35,10.2328487 7.665,10.5478487 8.05,10.5478487 L8.05,11.2233487 Z M10.465,10.3343487 C10.374,10.0508487 10.115,9.84784868 9.8,9.84784868 L9.45,9.84784868 L9.45,8.79784868 C9.45,8.60534868 9.2925,8.44784868 9.1,8.44784868 L7,8.44784868 L7,7.74784868 L7.7,7.74784868 C7.8925,7.74784868 8.05,7.59034868 8.05,7.39784868 L8.05,6.69784868 L8.75,6.69784868 C9.135,6.69784868 9.45,6.38284868 9.45,5.99784868 L9.45,5.85434868 C10.4755,6.27084868 11.2,7.27534868 11.2,8.44784868 C11.2,9.17584868 10.92,9.83734868 10.465,10.3343487 Z"/>
  </g>
</svg>

<svg xmlns="http://www.w3.org/2000/svg" width="12" height="12" viewBox="0 0 12 12"><rect id="frame" width="12" height="12" fill="none"/><g fill="none" fill-rule="evenodd"><path fill="#40B6E0" fill-opacity=".7" d="M1.107 2.027l3.685 3.73a4.48 4.48 0 0 0-.892 2.69c0 1.306.556 2.482 1.444 3.304-1.13-.316-2.233-1.001-3.197-1.977-2.262-2.29-2.942-5.356-1.04-7.747zm8.546.148c.915.926 1.571 1.98 1.902 3.065A4.484 4.484 0 0 0 8.4 3.948a4.48 4.48 0 0 0-2.71.907L2 1.121C4.362-.804 7.39-.117 9.653 2.175z"/><path fill="#9AA7B0" d="M8.4 4.948a3.501 3.501 0 0 0-3.5 3.5c0 1.932 1.568 3.5 3.5 3.5s3.5-1.568 3.5-3.5-1.568-3.5-3.5-3.5zm-.35 6.275a2.796 2.796 0 0 1-2.377-3.402L7.35 9.498v.35c0 .385.315.7.7.7v.675zm2.415-.889a.694.694 0 0 0-.665-.486h-.35v-1.05a.351.351 0 0 0-.35-.35H7v-.7h.7c.192 0 .35-.158.35-.35v-.7h.7c.385 0 .7-.315.7-.7v-.144a2.802 2.802 0 0 1 1.75 2.594c0 .728-.28 1.39-.735 1.886z"/></g></svg>
